icons/op-help2-24.svg

<svg width="24" height="24" viewBox="0 0 24 24" fill="none" xmlns="http://www.w3.org/2000/svg">
<path d="M17.6729 6.34834C14.5387 3.21722 9.46131 3.21722 6.32713 6.34834C3.22429 9.44814 3.22429 14.5205 6.32713 17.6517C9.46131 20.7828 14.5387 20.7828 17.6729 17.6517C20.7757 14.5205 20.7757 9.44814 17.6729 6.34834ZM11.6552 18.4344C10.7777 18.4344 10.0881 17.7143 10.0881 16.8689C10.0881 15.9922 10.7777 15.3033 11.6552 15.3033C12.5328 15.3033 13.2223 15.9922 13.2223 16.8689C13.2223 17.7143 12.5015 18.4344 11.6552 18.4344ZM12.7522 12.955V13.8004C12.7522 14.2387 12.5955 14.3953 12.1881 14.3953H11.0284C10.621 14.3953 10.4643 14.2387 10.4643 13.8004V11.8904C10.4643 11.3894 10.9657 11.2329 11.4045 11.1076C11.4985 11.0763 11.6239 11.045 11.7179 11.0137C12.3134 10.7945 12.6582 10.544 12.6582 9.91781C12.6582 9.69863 12.6582 9.07241 11.6239 9.07241C10.9971 9.07241 10.4329 9.3229 10.0881 9.44814C9.9001 9.54207 9.80607 9.57339 9.68071 9.57339C9.49265 9.57339 9.3046 9.41683 9.27326 9.22896L8.86582 8.19569C8.83448 8.10176 8.83448 8.00783 8.83448 7.94521C8.83448 7.19374 11.1851 6.75538 11.9687 6.75538C13.9432 6.75538 15.2909 8.03914 15.2909 9.91781C15.2909 11.9843 13.7238 12.6106 12.7522 12.955Z" fill="black"/>
</svg>

<svg xmlns="http://www.w3.org/2000/svg" width="24" height="24" viewBox="0 0 24 24"><path d="M17.673 6.348a8.027 8.027 0 0 0-11.346 0c-3.103 3.1-3.103 8.173 0 11.304a8.027 8.027 0 0 0 11.346 0c3.103-3.131 3.103-8.204 0-11.304Zm-6.018 12.086a1.57 1.57 0 0 1-1.567-1.565c0-.877.69-1.566 1.567-1.566.878 0 1.567.689 1.567 1.566a1.59 1.59 0 0 1-1.567 1.565Zm1.097-5.479v.845c0 .439-.157.595-.564.595h-1.16c-.407 0-.564-.156-.564-.595v-1.91c0-.501.502-.657.941-.782.093-.032.219-.063.313-.094.595-.22.94-.47.94-1.096 0-.219 0-.846-1.034-.846-.627 0-1.191.251-1.536.376-.188.094-.282.125-.407.125a.434.434 0 0 1-.408-.344l-.407-1.033c-.032-.094-.032-.188-.032-.251 0-.751 2.351-1.19 3.135-1.19 1.974 0 3.322 1.284 3.322 3.163 0 2.066-1.567 2.693-2.539 3.037Z"/></svg>
